media/magic-logo.svg

<svg width="250" height="250" xmlns="http://www.w3.org/2000/svg">

 <g>
  <title>background</title>
  <rect fill="none" id="canvas_background" height="402" width="582" y="-1" x="-1"/>
 </g>
 <g>
  <title>Layer 1</title>
  <g id="svg_1">
   <polygon id="svg_2" points="108,135.4 125,135.4 125,135.4 125,135.4 142,135.4 125,94.5  "/>
   <path id="svg_3" d="m125,30l0,0l0,0l-93.1,33.2l14.2,123.1l78.9,43.7l0,0l0,0l78.9,-43.7l14.2,-123.1l-93.1,-33.2zm58.1,152.6l-21.7,0l0,0l-11.7,-29.2l-24.7,0l0,0l0,0l-24.7,0l-11.7,29.2l0,0l-21.7,0l0,0l58.1,-130.5l0,0l0,0l0,0l0,0l58.1,130.5l0,0z"/>
  </g>
  <path stroke="#000000" id="svg_4" d="m61.37749,185.6151l64.000001,-134.999997l64.000001,134.999997l-128.000001,0z" stroke-width="1.5" fill="#000"/>
  <text stroke="#000000" transform="matrix(8.306987166145058,0,0,7.4096438218507314,-936.7025059342577,-678.7479098473511) " xml:space="preserve" text-anchor="start" font-family="Helvetica, Arial, sans-serif" font-size="24" id="svg_5" y="115.040752" x="119.138858" stroke-width="0" fill="#fcfcfc">w</text>
 </g>
</svg>

<?xml version="1.0" encoding="utf-8"?>
<!-- Generator: Adobe Illustrator 19.1.0, SVG Export Plug-In . SVG Version: 6.00 Build 0)  -->
<svg version="1.1" id="Layer_1" xmlns="http://www.w3.org/2000/svg" xmlns:xlink="http://www.w3.org/1999/xlink" x="0px" y="0px"
	 viewBox="0 0 250 250" style="enable-background:new 0 0 250 250;" xml:space="preserve">
<g>
	<polygon points="108,135.4 125,135.4 125,135.4 125,135.4 142,135.4 125,94.5 	"/>
	<path d="M125,30L125,30L125,30L31.9,63.2l14.2,123.1L125,230l0,0l0,0l78.9-43.7l14.2-123.1L125,30z M183.1,182.6h-21.7h0
		l-11.7-29.2H125h0h0h-24.7l-11.7,29.2h0H66.9h0L125,52.1l0,0l0,0l0,0l0,0L183.1,182.6L183.1,182.6z"/>
</g>
</svg>
